X:6
T:Boodle Lope
C:Heather Vigar-Horsley
M:6/8
R:jig
K:F
d2B c2A|BAG ^FED|d2B c2A|DE^F G3|\
d2B c2A|BAG ^FED|DE^F G2A|B2c d3:|
^F2G A2F|B2A GAB|c2A d2c|B2^F G3|\
^F2G A2F|B2A GAB|c2A d3|d2^F G3:|

